X:242
T:Gånglåt efter Lapp Nils
T:(SvL Jämtland 242)
R:Gånglåt
O:Mattmar, Jämtland
S:Munter Johan
S:Lapp-Nils
B:Svenska Låtar Jämtland
M:C|
L:1/8
K:C
f2 ed cBcA|[GG,]6 AB|c2 {cd}(cB cdef)|g6 a2|g2 f2 eafd|cBcA G2 AB|
c2 c2 d2 G2|c6 z2:| |:{cB}c4 a2 g2|g4 e2 c2|B2 dB G2 Bd|c2 f2 e2 d2|c4 a2 g2|
g4 e2 c2|B2 dB G2 AB|1 c6 z2:|2 c4 z2 |:[K:F]fg|a2 {/b}ag abag|a2 g2 f2 e2|
ded^c dedc|d2 d2 b2a2|g2 f2 e2 d2|c2 {/d}c=B c2 de|f2 a2 {ga}g2 ec|1f4 z2:|2f6 z2]|

